X: 1
T: Princess Of The Manor
M: 6/8
L: 1/8
R: jig
K: Ador
EAA AB/c/d|eBd cAB|~G3 EGD|~G3 DEG|
EAA AB/c/d|eBd cde|gab age|1dBe A2G:|2dBe A2d||
eaa age|deg BAG|~B3 dB/c/d|edB deg|
eaa age|deg ~B3|gab age|1dBe A2d:|2dBe A2G||
